X: 20993
T: One Evening as I lost my way
%R: jig
B: James Oswald "The Caledonian Pocket Companion" v.2 p.99 #3
Z: 2019 John Chambers <jc:trillian.mit.edu>
N: Replaced zz with z2 in 2 places.
M: 6/8
L: 1/8
K: G
D |"_Brisk"\
G2A BAG | d2d d2g | Tf2e d2c | BAB G2D |\
G2A BAG | d2d d2g | fed Te2d | d3 z2 :|
|: d |\
dBc ded | dcB c2c | cAB ced | cBA B2d |\
g2d g2d | g3- gfe | dcB TA2G | G3 z2 :|


